Papirus-nordic/64x64/places/folder-nordic-tar.svg

<svg xmlns="http://www.w3.org/2000/svg" width="64" height="64"><rect width="50" height="32" x="7" y="24" rx="2.5" ry="2.5" opacity=".2"/><path d="M7 44.5C7 45.885 8.115 47 9.5 47h45c1.385 0 2.5-1.115 2.5-2.5v-27c0-1.385-1.115-2.5-2.5-2.5H29v-2.5c0-1.385-1.115-2.5-2.5-2.5h-17A2.495 2.495 0 0 0 7 12.5" fill="#6c9b9a"/><rect width="50" height="32" x="7" y="22" rx="2.5" ry="2.5" opacity=".2"/><rect width="44" height="20" x="10" y="18" rx="2.5" ry="2.5" fill="#e4e4e4"/><rect width="50" height="32" x="7" y="23" rx="2.5" ry="2.5" fill="#82abaa"/><path d="M9.5 10A2.495 2.495 0 0 0 7 12.5v1C7 12.115 8.115 11 9.5 11h17c1.385 0 2.5 1.115 2.5 2.5v-1c0-1.385-1.115-2.5-2.5-2.5zM29 15v1h25.5c1.39 0 2.5 1.115 2.5 2.5v-1c0-1.385-1.11-2.5-2.5-2.5z" opacity=".1" fill="#fff"/><g fill="#4e6766"><path d="M32 23v2h2v-2zm0 2h-2v2h2zm0 2v2h2v-2zm0 2h-2v2h2zm0 2v2c1.104 0 2-1 2-2zM32 33c-2.21 0-4 1.8-4 4v8c0 2.2 1.79 4 4 4s4-1.8 4-4v-8c0-2.2-1.79-4-4-4zm0 2c1.104 0 2 .8 2 2 0 1-.896 2-2 2s-2-1-2-2c0-1.2.896-2 2-2zm0 6c1.104 0 2 .8 2 2v2c0 1-.896 2-2 2s-2-1-2-2v-2c0-1.2.896-2 2-2z"/></g></svg>

<svg xmlns="http://www.w3.org/2000/svg" width="64" height="64" version="1.1">
 <rect style="opacity:0.2" width="50" height="32" x="7" y="24" rx="2.5" ry="2.5"/>
 <path style="fill:#6c9b9a" d="M 7,44.5 C 7,45.885 8.115,47 9.5,47 H 54.5 C 55.885,47 57,45.885 57,44.5 V 17.5 C 57,16.115 55.885,15 54.5,15 H 29 V 12.5 C 29,11.115 27.885,10 26.5,10 H 9.5 C 8.115,10 7,11.115 7,12.5"/>
 <rect style="opacity:0.2" width="50" height="32" x="7" y="22" rx="2.5" ry="2.5"/>
 <rect style="fill:#e4e4e4" width="44" height="20" x="10" y="18" rx="2.5" ry="2.5"/>
 <rect style="fill:#82abaa" width="50" height="32" x="7" y="23" rx="2.5" ry="2.5"/>
 <path style="opacity:0.1;fill:#ffffff" d="M 9.5,10 C 8.115,10 7,11.115 7,12.5 V 13.5 C 7,12.115 8.115,11 9.5,11 H 26.5 C 27.885,11 29,12.115 29,13.5 V 12.5 C 29,11.115 27.885,10 26.5,10 Z M 29,15 V 16 H 54.5 C 55.89,16 57,17.115 57,18.5 V 17.5 C 57,16.115 55.89,15 54.5,15 Z"/>
 <g>
  <path style="fill:#4e6766" d="M 32,23 V 25 H 34 V 23 Z M 32,25 H 30 V 27 H 32 Z M 32,27 V 29 H 34 V 27 Z M 32,29 H 30 V 31 H 32 Z M 32,31 V 33 C 33.104,33 34,32 34,31 Z"/>
  <path style="fill:#4e6766" d="M 32,33 C 29.79,33 28,34.8 28,37 V 45 C 28,47.2 29.79,49 32,49 34.21,49 36,47.2 36,45 V 37 C 36,34.8 34.21,33 32,33 Z M 32,35 C 33.104,35 34,35.8 34,37 34,38 33.104,39 32,39 30.896,39 30,38 30,37 30,35.8 30.896,35 32,35 Z M 32,41 C 33.104,41 34,41.8 34,43 V 45 C 34,46 33.104,47 32,47 30.896,47 30,46 30,45 V 43 C 30,41.8 30.896,41 32,41 Z"/>
 </g>
</svg>
